!!!!SEGMENT: pl-gd--ee-1638--006-015_marenzio-luca--il-quinto-libro-de-madrigalia-a-cinque-voci-sotto-l-ombra-de-tuoi.krn
!!!cenid: 15xx:897
!!!COM: Marenzio, Luca
!!!COM-rismID: pe30003955
!!!CDT: ~1553-1599/08/22
!!!CNT: Italian
!!!GTL: Il Quinto libro de madrigalia a cinque voci
!!!OTL: Sotto l'ombra de tuoi
!!!OMV: 015
!!!PDT: 1585
!!!AGN:
!!!YEC: Copyright 2022 Narodowy Instytut Fryderyka Chopina (https://polishscores.org)
!!!YEM: License CC-BY-4.0 (https://creativecommons.org/licenses/by/4.0)
!!!SMS-siglum: PL-GD
!!!SMS-shelfmark: Ee 1638
!!!SMS-variant:
!!!SMS-altvar:
!!!SMS-shelfwork: 006-015 G
!!!NIFC-rismSourceID: 1001202747
!!!NIFC-rismChildID: 990039296
!!!NIFC-islandoraID: pl-gd:57883
!!!URL-pdf-islandora: https://repozytorium.nifc.pl/islandora/object/pl-gd%3A57883/datastream/PDF/view
!!!URL-scan: https://polish.musicsources.pl/pl/lokalizacje/galeria/klocki-introligatorskie/655 @EN{Scan on Polish Music Sources Website} @PL{Skany w portalu Dziedzictwo Muzyki Polskiej w otwartym dostępie}
!!!IIIF:
!!!ONB-nifc:
!!!AIN: 1 alto 1 bass 1 soprn 1 tenor 1 vox
!!!key: a
**kern	**text	**kern	**text	**kern	**text	**kern	**text	**kern	**text
*part5	*	*part4	*	*part3	*	*part2	*	*part1	*
*staff5	*	*staff4	*	*staff3	*	*staff2	*	*staff1	*
*I"BASSO	*	*I"TENORE	*	*I"ALTO 	*	*I"CANTO	*	*I"QVINTO 	*
*I'B	*	*I'T	*	*I'A	*	*I'S	*	*I'V	*
*ICvox	*	*ICvox	*	*ICvox	*	*ICvox	*	*ICvox	*
*Ibass	*	*Itenor	*	*Ialto	*	*Isoprn	*	*Ivox	*
*clefF4	*	*clefC4	*	*clefC3	*	*clefC1	*	*clefC1	*
*k[]	*	*k[]	*	*k[]	*	*k[]	*	*k[]	*
*a:	*	*a:	*	*a:	*	*a:	*	*a:	*
*M2/1	*	*M2/1	*	*M2/1	*	*M2/1	*	*M2/1	*
*met(C)	*	*met(C)	*	*met(C)	*	*met(C)	*	*met(C)	*
=1-	=1-	=1-	=1-	=1-	=1-	=1-	=1-	=1-	=1-
1r	.	1r	.	2r	.	1a	SOt-	2.d/	SOt-
.	.	.	.	2.d\	SOt-	.	.	.	.
.	.	.	.	.	.	.	.	4e/	-to
2r	.	2.d\	SOt-	.	.	1a	-to	2f/	l`om-
.	.	.	.	4e\	-to	.	.	.	.
2.D/	SOt-	.	.	2f\	l`om-	.	.	2d/	-bra
.	.	4e\	-to	.	.	.	.	.	.
=2-	=2-	=2-	=2-	=2-	=2-	=2-	=2-	=2-	=2-
.	.	2f\	l`om-	2d\	-bra	1a	l`om-	2r	.
4E\	-to	.	.	.	.	.	.	.	.
2F\	l`om-	2c\	-bra	2A/	de	.	.	1f	de
2D/	-bra	1r	.	4d\	tuoi	1a	-bra	.	.
.	.	.	.	4e\	pre-	.	.	.	.
2D/	de	.	.	4f\	-gia-	.	.	4d/	tuoi
.	.	.	.	4g\	-ti	.	.	4e/	pre-
=3-	=3-	=3-	=3-	=3-	=3-	=3-	=3-	=3-	=3-
4D/	tuoi	2r	.	2a\	ra-	2a\	de	4f/	-gia-
4E\	pre-	.	.	.	.	.	.	4g/	-ti
4F\	-gia-	2A/	de	2d\	-mi	4a\	tuoi	2a\	ra-
4G\	-ti	.	.	.	.	4b\	pre-	.	.
1A	ra-	4A/	tuoi	2c/	de	4cc\	-gia-	2e/	-mi
.	.	4B\	pre-	.	.	4dd\	-ti	.	.
.	.	4c\	-gia-	4A/	tuoi	2.ee\	ra-	2a\	de
!	!	!	!	!LO:SIC:v:t=custos c	!	!	!	!	!
.	.	4d\	-ti	4B/	pre-	.	.	.	.
!	!	!	!	!LO:LB:g=original	!	!	!	!	!
=4-	=4-	=4-	=4-	=4-	=4-	=4-	=4-	=4-	=4-
2A\	-mi	2e\	ra-	4c/	-gia-	.	.	4a\	tuoi
!	!	!	!	!	!	!	!	!LO:SIC:v:t=custos cc	!
.	.	.	.	4d\	-ti	4dd\	.	4b\	pre-
!	!	!	!	!	!	!	!	!LO:LB:g=original	!
2AA/	de	2e\	-mi	2e\	ra-	4cc\	.	4cc\	-gia-
.	.	.	.	.	.	4b\	.	4dd\	-ti
*	*	*	*ij	*	*	*	*	*	*
4AA/	tuoi	2E/	de	0e	-mi	4cc\	.	2.ee\	ra-
!LO:SIC:v:t=custos C	!	!	!	!	!	!	!	!	!
4BB/	pre-	.	.	.	.	4dd\	.	.	.
!LO:LB:g=original	!	!	!	!	!	!	!	!	!
4C/	-gia-	4E/	tuoi	.	.	2.ee\	.	.	.
!	!	!LO:SIC:v:t=custos G#	!	!	!	!	!	!	!
4D/	-ti	4F#X/	pre-	.	.	.	.	8dd\	.
.	.	.	.	.	.	.	.	8cc\	.
!	!	!LO:LB:g=original	!	!	!	!	!	!	!
=5-	=5-	=5-	=5-	=5-	=5-	=5-	=5-	=5-	=5-
1E	ra-	4G#X/	-gia-	.	.	.	.	4b\	.
.	.	4A/	-ti	.	.	8dd\	.	2a\	.
!	!	!	!	!	!	!LO:SIC:v:t=custos b	!	!	!
.	.	.	.	.	.	8cc\	.	.	.
!	!	!	!	!	!	!LO:LB:g=original	!	!	!
.	.	2B\	ra-	.	.	2b\	.	.	.
.	.	.	.	.	.	.	.	4g#X/	.
2AA/	-mi	1A	-mi	1e	Don-	1cc	-mi	2a\	-mi
2A\	Don-	.	.	.	.	.	.	4r	.
.	.	.	.	.	.	.	.	4e/	Don-
*	*	*	*Xij	*	*	*	*	*	*
=6-	=6-	=6-	=6-	=6-	=6-	=6-	=6-	=6-	=6-
2G\	-na	1r	.	2B/	-na	2r	.	2e/	-na
2F\	gen-	.	.	2A/	gen-	4r	.	2d/	gen-
.	.	.	.	.	.	2a\	Men-	.	.
2E\	-til	2r	.	4B/	-til	.	.	1e	-til
.	.	.	.	2e\	Mẽ-	4g#X/	-tre-	.	.
2A\	Don-	2c\	Don-	.	.	8a\	-lie	.	.
.	.	.	.	.	.	8b\	.	.	.
.	.	.	.	4c/	-tr`io	8cc\	.	.	.
.	.	.	.	.	.	8a\	.	.	.
=7-	=7-	=7-	=7-	=7-	=7-	=7-	=7-	=7-	=7-
2G\	-na	2B\	-na	2d\	lie-	2b\	.	2r	.
2F\	gen-	2A/	gen-	2a\	-to	4cc\	to	4r	.
.	.	.	.	.	.	4dd\	m`in-	2a\	Mẽt-
2E\	-til	2B\	-til	4r	.	2ee\	-chi-	.	.
.	.	.	.	2e\	mẽ-	.	.	4g#X\	-r`io
4A\	Mẽt-	4c\	Mẽt-	.	.	2e/	-no	8a\	lie-
.	.	.	.	.	.	.	.	8b\	.
4A\	-r`io	4e\	-r`io	4c/	-tr`io	.	.	8cc\	.
!	!	!	!	!	!	!	!	!LO:SIC:v:t=custos b	!
.	.	.	.	.	.	.	.	8a\	.
!	!	!	!	!	!	!	!	!LO:LB:g=original	!
=8-	=8-	=8-	=8-	=8-	=8-	=8-	=8-	=8-	=8-
8G\	lie-	8B\	lie-	4d\	lie-	2r	.	2b\	.
8F\	.	8A/	.	.	.	.	.	.	.
8E\	.	8Gny/	.	2e\	-to	.	.	.	.
8D\	.	8Fny/	.	.	.	.	.	.	.
1C	.	2E/	.	.	.	1gny	lie-	4cc\	-to
.	.	.	.	4f\	m`in-	.	.	4dd\	m`in-
.	.	2E/	to	2g\	-chi-	.	.	2ee\	-chi-
4C/	-to	2E/	m`in-	2G/	-no	4cc\	-to	2e/	-no
!LO:SIC:v:t=custos AA	!	!	!	!	!	!	!	!	!
4BB/	m`in-	.	.	.	.	4dd\	m`in-	.	.
!LO:LB:g=original	!	!	!	!	!	!	!	!	!
=9-	=9-	=9-	=9-	=9-	=9-	=9-	=9-	=9-	=9-
!	!	!	!	!LO:SIC:v:t=custos A	!	!	!	!	!
1AA	-chi-	1E	-chi-	2c/	m`in-	2ee\	-chi-	4r	.
.	.	.	.	.	.	.	.	4e/	M`in-
!	!	!	!	!LO:LB:g=original	!	!	!	!	!
.	.	.	.	1A	-chi-	1e	-no	1c	-chi-
1EE	-no	1E	-no	.	.	.	.	.	.
.	.	.	.	2G#X/	-no	1b\	A	2B/	-no
=10-	=10-	=10-	=10-	=10-	=10-	=10-	=10-	=10-	=10-
!	!	!LO:SIC:v:t=custos G	!	!	!	!	!	!	!
2E\	A	2G/	A	4r	.	.	.	4r	.
.	.	.	.	4B/	A	.	.	4e/	A
!	!	!	!	!	!	!LO:SIC:v:t=custos b-	!	!	!
1C	la	1G	la	1e	la	1cc	la	1gny	la
!	!	!	!	!	!	!LO:LB:g=original	!	!	!
2GG/	tua	2G/	tua	2d\	tua	2b-X\	tua	2g/	tua
=11-	=11-	=11-	=11-	=11-	=11-	=11-	=11-	=11-	=11-
2D/	bel-	2A/	bel-	2d\	bel-	2a\	bel-	2f/	bel-
2F\	-la	2A/	-la	4c/	-la	2a\	-la	2cc\	-la
.	.	.	.	2f\	pian-	.	.	.	.
1C	pian-	4c\	pian-	.	.	1g	pian-	1cc	pian-
.	.	8B\	.	8e\	.	.	.	.	.
.	.	8A\	.	8d\	.	.	.	.	.
.	.	2G/	.	2e\	.	.	.	.	.
=12-	=12-	=12-	=12-	=12-	=12-	=12-	=12-	=12-	=12-
2FF/	-ta	1F	-ta	1f	-ta	2a\	-ta	0cc	-ta
2F\	Ch`er-	.	.	.	.	2a\	Ch`er-	.	.
4F\	-ger-	2r	.	2r	.	4a\	-ger-	.	.
4G\	-le	.	.	.	.	4bny\	-le	.	.
4A\	sim`-	2A/	Ch`er-	2c/	Ch`er-	4cc\	cim-	.	.
4B\	-al	.	.	.	.	4dd\	-`al	.	.
=13-	=13-	=13-	=13-	=13-	=13-	=13-	=13-	=13-	=13-
2c\	Ciel	4A/	-ger-	4c/	-ger-	1ee	Ciel	2r	.
.	.	4B\	-le	4d\	-le	.	.	.	.
2C/	ſi	4c\	cim`-	4e\	cim`-	.	.	2g/	ſi
.	.	4d\	-al	4f\	-al	.	.	.	.
2C/	glo-	4e\	Ciel	4g\	Ciel	2r	.	2g/	glo-
.	.	2c\	ſi	2e\	ſi	.	.	.	.
2D/	-ria e	.	.	.	.	4r	.	2f/	-ria e
.	.	2B\	glo-	2d\	glo-	4dd\	ſi	.	.
=14-	=14-	=14-	=14-	=14-	=14-	=14-	=14-	=14-	=14-
!	!	!	!	!	!	!	!	!LO:SIC:v:t=custos e	!
1E	van-	.	.	.	.	4g/	glo-	1e	van-
.	.	4A/	-ria e	4c/	-ria e	4a\	-ria e	.	.
.	.	2G#X/	van-	2B/	van-	2b\	van-	.	.
!LO:SIC:v:t=custos A	!	!LO:SIC:v:t=custos c	!	!LO:SIC:v:t=custos e	!	!	!	!LO:LB:g=original	!
2AA/	-ta	1A	-ta	2c/	-ta	2a\	-ta	1e	-ta
!LO:LB:g=original	!	!	!	!LO:LB:g=original	!	!	!	!	!
1A\	Par-	.	.	1e\	Par-	1cc\	Par-	.	.
!	!	!LO:LB:g=original	!	!	!	!	!	!	!
=15-	=15-	=15-	=15-	=15-	=15-	=15-	=15-	=15-	=15-
.	.	0r	.	.	.	.	.	2a\	Par-
2E\	-m`in-	.	.	2e\	-m`in-	2b\	-m`in-	2g/	-m`in-
!	!	!	!	!	!	!LO:SIC:v:t=custos a	!	!	!
2F\	-for-	.	.	2c/	-for-	2a\	-for-	2f/	-for-
!	!	!	!	!	!	!LO:LB:g=original	!	!	!
4F\	-ma	.	.	4c/	-ma	4a\	-ma	4f/	-ma
4A\	d`A-	.	.	4c/	d`A-	4cc\	d`A-	4e/	d`A-
=16-	=16-	=16-	=16-	=16-	=16-	=16-	=16-	=16-	=16-
2G\	-mo-	1r	.	2d\	-mo-	2b\	-mo-	2g/	-mo-
2G\	-re	.	.	2d\	-re	2b\	-re	2g/	-re
1C	Qu-	4c\	Quiu`-	4e\	Quiu`-	1r	.	1r	.
.	.	4d\	-vn	4f\	-vn	.	.	.	.
.	.	2e\	vi-	2g\	vi-	.	.	.	.
=17-	=17-	=17-	=17-	=17-	=17-	=17-	=17-	=17-	=17-
0C	-ius	4e\	-ſo	4g\	-ſo	4e/	Quiu`-	4cc\	Quiu`-
.	.	4d\	ve-	4f\	ve-	4f/	-vn	4dd\	-vn
.	.	2c\	-der	2e\	-der	2g/	vi-	2ee\	vi-
*	*	*	*ij	*	*	*	*	*	*
.	.	4c\	Quiu`-	4e\	Quiu`-	4g/	-ſo	4ee\	-ſo
.	.	4d\	-vn	4f\	-un	4f/	ve-	4dd\	ve-
.	.	2e\	vi-	2g\	vi-	2e/	-der	1cc\	-der
=18-	=18-	=18-	=18-	=18-	=18-	=18-	=18-	=18-	=18-
*	*	*	*	*	*	*	*ij	*	*
4F\	Quiu`-	4f\	-ſo	4a\	-ſo	4a\	Quiu`-	.	.
4G\	-vn	4d\	ve-	4g\	ve-	4b\	-vn	.	.
*	*	*	*	*	*	*	*	*	*ij
2A\	vi-	2c\	-der	2e\	-der	2cc\	vi-	4a\	Quiu`-
.	.	.	.	.	.	.	.	4b\	-vn
4A\	-ſo	4F/	Quiu`-	4A/	Quiu`-	4cc\	-ſo	2cc\	vi-
!	!	!	!	!LO:SIC:v:t=custos c	!	!	!	!	!
4G\	ve-	4Gny/	-vn	4B/	-un	4b\	ve-	.	.
!	!	!	!	!LO:LB:g=original	!	!	!	!	!
2F\	-der	2A/	vi-	2c/	vi-	2a\	-der	4cc\	-ſo
.	.	.	.	.	.	.	.	4b\	ve-
=19-	=19-	=19-	=19-	=19-	=19-	=19-	=19-	=19-	=19-
4F\	Quiu`-	4A/	-ſo	4c/	-ſo	4a\	Quiu`-	2a\	-der
4G\	-un	4G/	ve-	4B/	ve-	4b\	-vn	.	.
*	*	*	*	*	*	*	*	*	*Xij
2A\	vi-	2F/	-der	2A/	-der	2cc\	vi-	4a\	Quiu`-
!	!	!	!	!	!	!	!	!LO:SIC:v:t=custos cc	!
.	.	.	.	.	.	.	.	4b\	-un
!	!	!	!	!	!	!	!	!LO:LB:g=original	!
*	*	*	*Xij	*	*	*	*	*	*
4A\	-ſo	4F/	Quiu`-	4A/	Quiu`-	4cc\	-ſo	2cc\	vi-
!LO:SIC:v:t=custos F	!	!LO:SIC:v:t=custos A	!	!	!	!LO:SIC:v:t=custos a	!	!	!
4G\	ve-	4G/	-un	4B/	-un	4b\	ve-	.	.
!LO:LB:g=original	!	!LO:LB:g=original	!	!	!	!LO:LB:g=original	!	!	!
2F\	-der	2A/	vi-	2c/	vi-	2a\	-der	4cc\	-ſo
.	.	.	.	.	.	.	.	4b\	ve-
*	*	*	*	*	*	*	*Xij	*	*
=20-	=20-	=20-	=20-	=20-	=20-	=20-	=20-	=20-	=20-
1F	chia-	4A/	-ſo	4c/	-ſo	1cc	chiar`-	1a	-der
.	.	4G/	ve-	4B/	ve-	.	.	.	.
.	.	2F/	-der	2A/	-der	.	.	.	.
1.BB-X	-ro e	1F	chia-	1d	chia-	1.b-X	-oe	1f	chiar`-
=21-	=21-	=21-	=21-	=21-	=21-	=21-	=21-	=21-	=21-
.	.	1F	-ro e	2d\	-ro e	.	.	1f	-e
2FF/	di-	.	.	2c/	di-	2a\	di-	.	.
*lig	*	*	*	*lig	*	*	*	*	*
1AA	-ui-	1C	di-	1c	-ui-	4a\	-ui-	2e/	di-
.	.	.	.	.	.	8g/	.	.	.
.	.	.	.	.	.	8f/	.	.	.
.	.	.	.	.	.	4e/	.	2.cc\	-ui-
.	.	.	.	.	.	4f/	.	.	.
=22-	=22-	=22-	=22-	=22-	=22-	=22-	=22-	=22-	=22-
1GG	.	1G	-vi-	1d	.	1g	.	.	.
.	.	.	.	.	.	.	.	8b\	.
.	.	.	.	.	.	.	.	8a\	.
.	.	.	.	.	.	.	.	2b\	.
*Xlig	*	*	*	*Xlig	*	*	*	*	*
1C	-no	1G	-no	1e	-no	1g	-no	1cc	-no
=23-	=23-	=23-	=23-	=23-	=23-	=23-	=23-	=23-	=23-
2FF/	on-	1c	on-	2f\	on-	2a\	on-	2r	.
2F\	-d`io	.	.	2f\	-d`io	2cc\	-d`io	2a\	on-
4r	.	2A/	-d`io	4r	.	4r	.	2cc\	-d`io
4F\	pien	.	.	4f\	pien	4a\	pien	.	.
4A\	di	2r	.	4e\	di	4cc\	di	2r	.
!	!	!	!	!LO:SIC:v:t=custos c	!	!	!	!	!
4G\	ſtu-	.	.	4g\	ſtu-	4bny\	ſtu-	.	.
!	!	!	!	!LO:LB:g=original	!	!	!	!	!
=24-	=24-	=24-	=24-	=24-	=24-	=24-	=24-	=24-	=24-
2F\	-po-	4r	.	2c/	-po-	2a\	-po-	4r	.
.	.	4c\	pien	.	.	.	.	4a\	pien
2C/	-re	4e\	di	2c/	-re	2g/	-re	4cc\	di
.	.	4d\	ſtu-	.	.	.	.	4b\	ſtu-
4r	.	2c\	-po-	4r	.	4r	.	2a\	-po-
*	*ij	*	*	*	*	*	*ij	*	*
4A\	pien	.	.	4e\	pien	4cc\	pien	.	.
4c\	di	2C/	-re	1e\	di	4ee\	di	2g/	-re
!	!	!	!	!	!	!LO:SIC:v:t=custos cc	!	!	!
4B\	ſtu-	.	.	.	.	4dd\	ſtu-	.	.
!	!	!	!	!	!	!LO:LB:g=original	!	!	!
=25-	=25-	=25-	=25-	=25-	=25-	=25-	=25-	=25-	=25-
2A\	-po-	4r	.	.	.	2cc\	-po-	4r	.
!	!	!	!	!	!	!	!	!LO:SIC:v:t=custos ee	!
*	*	*	*ij	*	*	*	*	*	*
.	.	4A\	pien	.	.	.	.	4cc\	pien-
!	!	!	!	!	!	!	!	!LO:LB:g=original	!
2E\	-re	4c\	di	4e\	ſtu-	2g/	-re	4ee\	-di
!	!	!LO:SIC:v:t=custos A	!	!	!	!	!	!	!
.	.	4B\	ſtu-	2g\	-po-	.	.	4dd\	ſtu-
!	!	!LO:LB:g=original	!	!	!	!	!	!	!
0r	.	2A/	-po-	.	.	1r	.	2cc\	-po-
.	.	.	.	4f#X\	.	.	.	.	.
.	.	2G/	-re	2g\	-re	.	.	2b\	-re
*	*Xij	*	*Xij	*	*	*	*Xij	*	*
=26-	=26-	=26-	=26-	=26-	=26-	=26-	=26-	=26-	=26-
.	.	0c	Fiſ-	0e	Fiſ-	1g	Fiſ-	0cc	Fiſ-
1r	.	.	.	.	.	1g	-ſo	.	.
=27-	=27-	=27-	=27-	=27-	=27-	=27-	=27-	=27-	=27-
4r	.	1F	-ſo	2c/	-ſo	4r	.	1cc	-ſo
8F\	il	.	.	.	.	8a\	il	.	.
!LO:SIC:v:t=custos A	!	!	!	!	!	!	!	!	!
8G\	va-	.	.	.	.	8b\	vag-	.	.
!LO:LB:g=original	!	!	!	!	!	!	!	!	!
4A\	-ghe-	.	.	4r	.	4cc\	-heg-	.	.
4F\	-gi`ei	.	.	8A/	il	4a\	-gio ei-	.	.
.	.	.	.	8B/	vag-	.	.	.	.
1F	ei	4r	.	4c/	-heg-	1a	-ei	4r	.
.	.	8F/	il	4fny\	-gi`ei	.	.	8a\	il
.	.	8G/	vag-	.	.	.	.	8b\	vag-
.	.	4A/	-heg-	4f\	ei	.	.	4cc\	-heg-
.	.	4F/	-gi`ei	4f\	ri-	.	.	4a\	-gi`ei
=28-	=28-	=28-	=28-	=28-	=28-	=28-	=28-	=28-	=28-
1r	.	2c\	ei	8e\	-den-	1r	.	4.g\	ei
.	.	.	.	8d\	.	.	.	.	.
.	.	.	.	8e\	.	.	.	.	.
!	!	!	!	!LO:SIC:v:t=custos g	!	!	!	!	!
.	.	.	.	8f\	.	.	.	8a\	ri-
!	!	!	!	!LO:LB:g=original	!	!	!	!	!
.	.	2G/	ri-	2g\	.	.	.	2b-X\	den-
00r	.	4.d\	den-	4.f\	-do	4r	.	4a\	-do
.	.	.	.	.	.	4a\	ri-	4f/	ri-
.	.	16c\	.	16e\	.	.	.	.	.
.	.	16B\	.	16d\	.	.	.	.	.
.	.	8A/	.	2e\	.	4.cc\	-den-	4.a\	-den-
.	.	8G/	.	.	.	.	.	.	.
.	.	8A/	.	.	.	.	.	.	.
.	.	8B\	.	.	.	16b\	.	16g/	.
.	.	.	.	.	.	16a\	.	16f/	.
=29-	=29-	=29-	=29-	=29-	=29-	=29-	=29-	=29-	=29-
.	.	1c	.	2r	.	8g/	.	8e/	.
.	.	.	.	.	.	8f/	.	8d/	.
.	.	.	.	.	.	8g/	.	8e/	.
!	!	!	!	!	!	!	!	!LO:SIC:v:t=custos e	!
.	.	.	.	.	.	8a\	.	8f/	.
!	!	!	!	!	!	!	!	!LO:LB:g=original	!
.	.	.	.	4r	.	2g/	.	2e/	.
.	.	.	.	2c/	di-	.	.	.	.
.	.	1F	-do	.	.	1a	-do	1f	-do
.	.	.	.	8B/	.	.	.	.	.
.	.	.	.	8A/	.	.	.	.	.
.	.	.	.	2.d\	.	.	.	.	.
=30-	=30-	=30-	=30-	=30-	=30-	=30-	=30-	=30-	=30-
!	!	!	!	!	!	!LO:SIC:v:t=custos a	!	!	!
.	.	1A	di-	.	.	1a	di-	1e	di-
.	.	.	.	8c#X/	.	.	.	.	.
.	.	.	.	8B/	.	.	.	.	.
.	.	.	.	2c#X/	.	.	.	.	.
!	!	!LO:SIC:v:t=custos d	!	!	!	!LO:LB:g=original	!	!	!
0r	.	2D/	-ce	1d	-ce	2a\	-ce	2f/	-ce
!	!	!LO:LB:g=original	!	!	!	!	!	!	!
.	.	4d\	Nel	.	.	4f/	Nel	4a\	Nel
.	.	4d\	boſ-	.	.	4f/	boſ-	4a\	boſ-
=31-	=31-	=31-	=31-	=31-	=31-	=31-	=31-	=31-	=31-
.	.	2d\	-chet-	1r	.	2f/	-chet-	2a\	-chet-
.	.	4c\	-to	.	.	4e/	-to	4a\	-to
.	.	4B\	d`A-	.	.	4d/	d`A-	4g/	d`A-
2r	.	1A	-mor	2r	.	2e/	-mor	1a	-mor
4A\	Nel	.	.	2e\	ſa-	4cc\	Nel	.	.
4A\	boſ-	.	.	.	.	4cc\	boſ-	.	.
=32-	=32-	=32-	=32-	=32-	=32-	=32-	=32-	=32-	=32-
2A\	-chet-	1r	.	2cny/	-rai	2cc\	-chet-	1e	di-
4G\	-to	.	.	2d\	fe-	4b\	-to	.	.
4F\	d`A-	.	.	.	.	4a\	d`A-	.	.
2E\	-mor	2r	.	1e	-li-	1g	-mor	2e/	-ce
2E\	ſa-	4B\	Nel	.	.	.	.	4ee\	Nel
.	.	4B\	boſ-	.	.	.	.	4ee\	boſ-
=33-	=33-	=33-	=33-	=33-	=33-	=33-	=33-	=33-	=33-
2C/	-rai	2c\	-chet-	1A	-ce	1e	di-	2ee\	-chet-
2D/	fe-	4B\	-to	.	.	.	.	4dd\	-to
.	.	4A/	d`A-	.	.	.	.	4cc\	d`A-
0.E	-li-	2G#X/	-mor	1r	.	2e/	-ce	4bny\	-mor
.	.	.	.	.	.	.	.	4b\	ſar-
.	.	2B\	ſar-	.	.	4ee\	Nel	4g#X/	-ai
!	!	!	!	!	!	!	!	!LO:SIC:v:t=custos b	!
.	.	.	.	.	.	4ee\	boſ-	4a\	fe-
!	!	!	!	!	!	!	!	!LO:LB:g=original	!
=34-	=34-	=34-	=34-	=34-	=34-	=34-	=34-	=34-	=34-
.	.	2G#X/	-ai	0e	di-	2ee\	-chet-	2b\	-li-
.	.	2A/	fe-	.	.	4dd\	-to	2.a\	.
!	!	!	!	!	!	!LO:SIC:v:t=custos b	!	!	!
.	.	.	.	.	.	4cc\	d`A-	.	.
!	!	!	!	!	!	!LO:LB:g=original	!	!	!
.	.	1B	-li-	.	.	1b	-mor	.	.
.	.	.	.	.	.	.	.	8g#X/	.
.	.	.	.	.	.	.	.	8f#X/	.
.	.	.	.	.	.	.	.	2g#X/	.
=35-	=35-	=35-	=35-	=35-	=35-	=35-	=35-	=35-	=35-
2AA/	-ce	1A	-ce	1e	-ce	2r	.	1a	-ce
4A\	Nel	.	.	.	.	4cc\	Nel	.	.
4A\	boſ-	.	.	.	.	4cc\	boſ-	.	.
2A\	-chet-	1r	.	1r	.	2cc\	-chet-	1e	di-
4G\	-to	.	.	.	.	4b\	-to	.	.
!LO:SIC:v:t=custos E	!	!	!	!	!	!	!	!	!
4F\	d`A-	.	.	.	.	4a\	d`a-	.	.
!LO:LB:g=original	!	!	!	!	!	!	!	!	!
=36-	=36-	=36-	=36-	=36-	=36-	=36-	=36-	=36-	=36-
2E\	-mor	2r	.	2r	.	1g	mor	2e/	-ce
4C/	Nel	4c\	Nel	4g\	Nel	.	.	4ee\	Nel
!	!	!LO:SIC:v:t=custos c	!	!LO:SIC:v:t=custos g	!	!	!	!	!
4C/	boſ-	4c\	bo-	4g\	bo-	.	.	4ee\	boſ-
!	!	!LO:LB:g=original	!	!LO:LB:g=original	!	!	!	!	!
2C/	-chet-	2c\	-ſchet-	2g\	-ſchet-	1e	di-	2ee\	-chet-
4GG/	-to	4B\	-to	4g\	-to	.	.	4dd\	-to
4AA/	d`A-	4A/	d`A-	4c/	d`A-	.	.	4cc\	d`a-
=37-	=37-	=37-	=37-	=37-	=37-	=37-	=37-	=37-	=37-
2E\	-mor	1Gny	-mor	2e\	-mor	2e/	-ce	2b\	mor
*	*	*	*	*	*ij	*	*	*	*ij
2E\	ſa-	.	.	4e\	Nel	4ee\	Nel	4b\	Nel
.	.	.	.	4e\	boſ-	4ee\	boſ-	4b\	boſ-
2C/	-rai	1r	.	2g\	-chet-	2ee\	-chet-	2cc\	-chet-
2D/	fe-	.	.	4f\	-to	4dd\	-to	4b\	-to
.	.	.	.	4a\	d`A-	4cc\	d`a-	4a\	d`a-
=38-	=38-	=38-	=38-	=38-	=38-	=38-	=38-	=38-	=38-
1E	-li-	1E	di-	1e	-mor	2b\	mor	1g#X	mor
.	.	.	.	.	.	2b\	ſar-	.	.
*	*	*	*	*	*	*	*	*	*Xij
2AA/	-ce	2E/	-ce	2r	.	1cc	-ai	1a	ſ(a)-
2AA/	ſa-	4A/	Nel	4e\	Nel	.	.	.	.
.	.	4A/	bo-	4e\	boſ-	.	.	.	.
=39-	=39-	=39-	=39-	=39-	=39-	=39-	=39-	=39-	=39-
2FF/	-rai	2A/	-ſchet-	2f\	-chet-	1.cc	fe-	1.a	-ra(i)
2GG/	fe-	4G/	-to	4e\	-to	.	.	.	.
.	.	4F/	d`a-	4d\	d`A-	.	.	.	.
0.AA	-li-	2E/	-mor	4c/	-mor	.	.	.	.
*	*	*	*	*	*Xij	*	*	*	*
.	.	.	.	4e\	ſa-	.	.	.	.
.	.	2E/	ſar-	4c#X/	-rai	1a\	-li-	2e/	fe-
.	.	.	.	4d\	fe-	.	.	.	.
=40-	=40-	=40-	=40-	=40-	=40-	=40-	=40-	=40-	=40-
.	.	2C#X/	-ai	2e\	-li-	.	.	0a	-li-
.	.	2D/	fe-	2.d\	.	4g/	.	.	.
.	.	.	.	.	.	4f/	.	.	.
.	.	1E	-li-	.	.	1e	.	.	.
.	.	.	.	8c#X/	.	.	.	.	.
.	.	.	.	8B/	.	.	.	.	.
.	.	.	.	2c#X/	.	.	.	.	.
=41-	=41-	=41-	=41-	=41-	=41-	=41-	=41-	=41-	=41-
00D/	-ce.	00D	-ce.	00d	-ce.	00f#X	-ce.	00a	-ce.
==	==	==	==	==	==	==	==	==	==
*-	*-	*-	*-	*-	*-	*-	*-	*-	*-
!!!system-decoration: [(s1,s2,s3,s4,s5)]
!!!ENC: Filip Voros
!!!END: 2022-06-09
!!!ENC: Jan Barakat
!!!END: 2022-07-20
